X: 109
T: Missa Pro fidelibus defunctis / Kyrie
N: Derived from Rue1024b-Missa_Pro_fidelibus_defunctis-Kyrie.krn
C: Pierre de la Rue
%%abc-version 2.0
%%abcx-abcm2ps-target-version 5.9.1 (29 Sep 2008)
%%abc-creator hum2abc beta
%%abcx-conversion-date 2019/02/17 08:01:14
%%abc-edited-by Jesse Rodin
%%abc-edited-by Chris Gage 04-23-2013
%%abcx-initial-encoding-date 2013/08/01/
%%humdrum-veritas 1312592126
%%humdrum-veritas-data 4274331889
%%linebreak <none>
%%barnumbers 0
L: 1/4
M: 3/1
Q: 1/2=120
V: 1 clef=treble-8
V: 2 clef=bass
V: 3 clef=bass
V: 4 clef=bass
V: 5 clef=bass
K: Bb
[V:1] B6c2d4 | 
[V:2] G,6A,2B,4 | 
[V:3] z12 | 
[V:4] z12 | 
[V:5] z12 | 
[V:1] e4c6d2 | 
[V:2] C4A,6B,2 | 
[V:3] z12 | 
[V:4] z12 | 
[V:5] z12 | 
[V:1] d12 | 
[V:2] B,12 | 
[V:3] B,,6C,2D,4 | 
[V:4] z12 | 
[V:5] G,,6A,,2B,,4 | 
[V:1] z4z4e4 | 
[V:2] z12 | 
[V:3] E,4C,6D,2 | 
[V:4] z12 | 
[V:5] C,4A,,6G,,2 | 
[V:1] d4f8 | 
[V:2] B,8F,4 | 
[V:3] D,8z4 | 
[V:4] z12 | 
[V:5] B,,12 | 
[V:1] d4e8 | 
[V:2] G,8G,4 | 
[V:3] B,,8B,,4 | 
[V:4] z12 | 
[V:5] z4E,,6F,,2 | 
[V:1] d6c2A4- | 
[V:2] D,4F,8 | 
[V:3] B,,4A,,8 | 
[V:4] z12 | 
[V:5] G,,4F,,8 | 
[V:1] A4G8 | 
[V:2] E,8z4 | 
[V:3] C,8z4 | 
[V:4] z12 | 
[V:5] C,,8E,,4- | 
[V:1] B6c2d4 | 
[V:2] G,8D,4 | 
[V:3] G,,6A,,2B,,4 | 
[V:4] z12 | 
[V:5] E,,2F,,2G,,8 | 
[V:1] e4c6d2 | 
[V:2] G,4F,8 | 
[V:3] C,4A,,6B,,2 | 
[V:4] z12 | 
[V:5] E,,4F,,8 | 
[V:1] d12 | 
[V:2] F,12- | 
[V:3] B,,12- | 
[V:4] z12 | 
[V:5] B,,,12- | 
[V:1] d12 ||  
[V:2] F,12 ||  
[V:3] B,,12 ||  
[V:4] z12 ||  
[V:5] B,,,12 ||  
[V:1]  [K:Bb] [K:clef=treble-8][M:2/1]B8 | 
[V:2]  [K:Bb] [K:clef=bass][M:2/1]G,8 | 
[V:3]  [K:Bb] [K:clef=bass][M:2/1]E,8 | 
[V:4]  [K:Bb] [K:clef=bass][M:2/1]z8 | 
[V:5]  [K:Bb] [K:clef=bass][M:2/1]G,,8 | 
[V:1] B8 | 
[V:2] G,8 | 
[V:3] D,8 | 
[V:4] z8 | 
[V:5] G,,8 | 
[V:1] c6A2 | 
[V:2] E,6F,2 | 
[V:3] C,8- | 
[V:4] z8 | 
[V:5] _A,,6F,,2 | 
[V:1] A8 | 
[V:2] F,8- | 
[V:3] C,8 | 
[V:4] z8 | 
[V:5] F,,8 | 
[V:1] z8 | 
[V:2] F,4G,4 | 
[V:3] D,4E,4- | 
[V:4] z8 | 
[V:5] z4C,4- | 
[V:1] z8 | 
[V:2] _A,2G,2G,4- | 
[V:3] E,4D,4 | 
[V:4] z8 | 
[V:5] C,2G,,2B,,4 | 
[V:1] z8 | 
[V:2] G,4F,4 | 
[V:3] C,8 | 
[V:4] z8 | 
[V:5] _A,,8 | 
[V:1] z4B4- | 
[V:2] G,8- | 
[V:3] B,,8 | 
[V:4] z8 | 
[V:5] G,,8 | 
[V:1] B4B4 | 
[V:2] G,8 | 
[V:3] E,8 | 
[V:4] z8 | 
[V:5] z4G,,4- | 
[V:1] B8 | 
[V:2] z4G,4 | 
[V:3] D,8 | 
[V:4] z8 | 
[V:5] G,,4G,,4 | 
[V:1] c6A2 | 
[V:2] E,6F,2 | 
[V:3] C,8- | 
[V:4] z8 | 
[V:5] _A,,6F,,2 | 
[V:1] A8 | 
[V:2] F,8 | 
[V:3] C,8 | 
[V:4] z8 | 
[V:5] F,,8 | 
[V:1] z4G4- | 
[V:2] z4B,,4- | 
[V:3] D,4E,4- | 
[V:4] z8 | 
[V:5] z4E,,4- | 
[V:1] G4G4- | 
[V:2] B,,4E,4- | 
[V:3] E,2D,2C,2B,,2 | 
[V:4] z8 | 
[V:5] E,,4E,,4- | 
[V:1] G4G4 | 
[V:2] E,4E,4 | 
[V:3] C,4B,,4 | 
[V:4] z8 | 
[V:5] E,,4G,,4 | 
[V:1] A4B4- | 
[V:2] F,4G,4- | 
[V:3] z4E,4- | 
[V:4] z8 | 
[V:5] F,,4E,,4- | 
[V:1] B2AGB4 | 
[V:2] G,2E,2F,4 | 
[V:3] E,4D,4 | 
[V:4] z8 | 
[V:5] E,,4B,,,4 | 
[V:1] G2E2F4 | 
[V:2] z4F,4 | 
[V:3] C,4D,4 | 
[V:4] z8 | 
[V:5] C,,2E,,2D,,4 | 
[V:1] E8 | 
[V:2] G,4B,4 | 
[V:3] E,8 | 
[V:4] z8 | 
[V:5] C,,2E,,4G,,2 | 
[V:1] F4G4- | 
[V:2] _A,4G,2E,2 | 
[V:3] C,6B,,2 | 
[V:4] z8 | 
[V:5] F,,4E,,4- | 
[V:1] G4G4 | 
[V:2] E,8 | 
[V:3] B,,8 | 
[V:4] z8 | 
[V:5] E,,8 | 
[V:1] _A6G2 | 
[V:2] F,6E,2 | 
[V:3] C,6B,,2 | 
[V:4] z8 | 
[V:5] _A,,6E,,2 | 
[V:1] G8 ||  
[V:2] E,8 ||  
[V:3] B,,8 ||  
[V:4] z8 ||  
[V:5] E,,8 ||  
[V:1]  [K:Bb] [K:clef=treble-8][M:3/1]B8B4 | 
[V:2]  [K:Bb] [K:clef=bass][M:3/1]G,12- | 
[V:3]  [K:Bb] [K:clef=bass][M:3/1]z12 | 
[V:4]  [K:Bb] [K:clef=bass][M:3/1]B,,8B,,4 | 
[V:5]  [K:Bb] [K:clef=bass][M:3/1]E,,8G,,4 | 
[V:1] c4e8 | 
[V:2] G,8G,4 | 
[V:3] z12 | 
[V:4] G,,8G,,4 | 
[V:5] C,,8E,,4 | 
[V:1] d6c2B4 | 
[V:2] B,6A,G,F,4- | 
[V:3] B,,8B,,4 | 
[V:4] F,,12- | 
[V:5] B,,,8B,,,4 | 
[V:1] A8A4 | 
[V:2] F,2E,2C,4F,4 | 
[V:3] C,8D,4 | 
[V:4] F,,4A,,8 | 
[V:5] F,,8F,,4 | 
[V:1] G4z2c4B2 | 
[V:2] G,12- | 
[V:3] E,12- | 
[V:4] B,,6C,2G,,4 | 
[V:5] E,,12 | 
[V:1] c2G4c4B2 | 
[V:2] G,8z4 | 
[V:3] E,8D,4 | 
[V:4] z2G,,2C,4B,,2G,,2- | 
[V:5] z4z4G,,4 | 
[V:1] c2B2c2d2e4 | 
[V:2] z12 | 
[V:3] C,2D,2C,2B,,4A,,2 | 
[V:4] G,,2F,,2G,,2F,,4E,,2 | 
[V:5] E,,2D,,2E,,2D,,2C,,4 | 
[V:1] d4z2B4B2 | 
[V:2] F,8F,4 | 
[V:3] B,,12 | 
[V:4] F,,8F,,4 | 
[V:5] B,,,12 | 
[V:1] c4e8 | 
[V:2] G,8G,4 | 
[V:3] z12 | 
[V:4] C,,8E,,4 | 
[V:5] z12 | 
[V:1] d6B6 | 
[V:2] F,6D,6 | 
[V:3] B,,8B,,4 | 
[V:4] F,,12 | 
[V:5] B,,,8B,,,4 | 
[V:1] G6A6 | 
[V:2] E,4G,2F,4F,2 | 
[V:3] C,8D,4 | 
[V:4] z12 | 
[V:5] E,,6F,,6 | 
[V:1] G6c6 | 
[V:2] G,12- | 
[V:3] E,12- | 
[V:4] z12 | 
[V:5] E,,6C,,6 | 
[V:1] B2e3dc4=B2 | 
[V:2] G,12 | 
[V:3] E,8D,4 | 
[V:4] z4z4G,,4 | 
[V:5] E,,6F,,2G,,4 | 
[V:1] c4e4f4 | 
[V:2] G,8A,4 | 
[V:3] C,8C,4 | 
[V:4] G,,8F,,4 | 
[V:5] C,,8F,,4 | 
[V:1] z2d3cB2A2B2 | 
[V:2] B,6G,2F,4 | 
[V:3] B,,8z4 | 
[V:4] F,,8F,,4 | 
[V:5] B,,,8z2B,,,2 | 
[V:1] G4z2G2A4 | 
[V:2] E,4z2E,2F,4 | 
[V:3] z2B,,2G,,2B,,2F,,4 | 
[V:4] G,,8z4 | 
[V:5] E,,8D,,4 | 
[V:1] G6E4F2 | 
[V:2] E,6G,4F,2 | 
[V:3] B,,12- | 
[V:4] G,,12- | 
[V:5] E,,12- | 
[V:1] G2A2B2c2d2e2 | 
[V:2] E,2D,C,B,,2E,3F,G,2 | 
[V:3] B,,12 | 
[V:4] G,,12 | 
[V:5] E,,8z4 | 
[V:1] f8d4 | 
[V:2] F,2B,,2F,8 | 
[V:3] B,,12- | 
[V:4] z12 | 
[V:5] z12 | 
[V:1] e8d4- | 
[V:2] G,4E,4F,4- | 
[V:3] B,,12- | 
[V:4] G,,8F,,4- | 
[V:5] E,,8B,,,4- | 
[V:1] d12- | 
[V:2] F,12 | 
[V:3] B,,12- | 
[V:4] F,,12- | 
[V:5] B,,,12- | 
[V:1] d12 |]  
[V:2] F,12 |]  
[V:3] B,,12 |]  
[V:4] F,,12 |]  
[V:5] B,,,12 |]  



